!!!CDT: 1543-1602
!!!PTL: Il terzo libro de madrigali a quattro, et a cinque voci
!!!PPP: Venice
!!!PPR: Angelo Gardano
!!!PDT: 1598
!!!PUB-format:
!!!RISM: G 4800
!!!rime: 46
!!!AGN: Madrigal
!!!SCT: Trm0046a
!!!SCA: Trm0046a
!!!original-voices: 4
!!!extant-voices: 1
!!!complete: N
!!!final: (C)F
!!!COM: Guami, Francesco
!!!OTL: Amor, se fia giamai che dolce i' tócchi
**kern	**text
*part1	*part1
*staff1	*staff1
*I"Tenore	*
*I'T	*
*oclefC4	*
*clefGv2	*
*k[b-]	*
*omet(C|)	*
*M2/1	*
=1	=1
!!LO:TX:a:t=Prima parte. A Quattro.
2A	A-
2.A	-mor,
4G	se
4c	fia
4B-y	gia-
=2	=2
1A	-mai
2B-y	che
[2G	dol-
=3	=3
4G]	.
4G	-ce i'
2d	tóc-
2G	-chi
4r	.
4c	Il
=4	=4
4A	ter-
4A	-so a-
4.B-y	-vo-
8A	.
2G	.
4F	-rio,
4c	Il
=5	=5
2F	ter-
2G	-so a-
2A	-vo-
4B-y	-rio
[4B-y	de
=6	=6
4B-]	.
4G	la
4d	bian-
4c	-ca
2c	ma-
4c	-no,
4c	E'l
=7	=7
8AL	lam-
8G	.
8A	.
8B-yJ	.
4A	.
4f	-peg-
2e	-giar
2r	.
=8	=8
2r	.
4r	.
4c	del
8FL	ri-
8E	.
8F	.
8G	.
8A	.
8GJ	.
[4F	.
=9	=9
4F]	.
4E	-so
4r	.
2F	hu-
4G	-mi-
2A	-le e
=10	=10
2.A	pia-
4G	.
2F	.
4D	-no
4B-y	Veg-
=11	=11
4A	-gia
2A	d'ap-
2G	-pres-
4F	.
4G	-so
4d	e 'l
=12	=12
8gL	fol-
8f	.
8e	.
8dJ	.
4c	.
4A	-go-
8fL	-rar,
8e	.
8d	.
8cJ	.
4B-y	.
4F	e 'l
=13	=13
8AL	fol-
8G	.
8F	.
8EJ	.
4D	.
4D	-go-
4E	-rar,
4c	e 'l
8.A	fol-
16A	-go-
4c	-rar
=14	=14
4r	.
4F	de
1c	gli
2B-y	oc-
=15	=15
1c	-chi.
1r	.
=16	=16
1r	.
2c	E
4A	no-
4G	-tar
=17	=17
2F	pos-
2.B-y	-sa
2e-X	co-
4e-i	-me
=18	=18
4d	quin-
4A	-di
2c	scoc-
2F	-chi
2A	Lo
=19	=19
2A	stral
2G	tuo
2G	dol-
2A	-c'e
=20	=20
4.d	mai
8c	non
2B-y	par-
4B-y	-ta,
2B-y	non
[4c	par-
=21	=21
4c]	.
4B-y	-ta in
2A	va-
2G	-no,
2r	.
=22	=22
2B-y	E
4B-y	co-
4B-y	-me al
4B-y	cor
4G	del
4F	bel
4G	sem-
=23	=23
2.A	-bian-
4A	-te hu-
2A	-ma-
2A	-no
=24	=24
4r	.
4c	D'a-
4d	-mo-
2d	-ro-
2d	-se
4A	fa-
=25	=25
2BnX	-vil-
2c	-le un
4.c	nem-
8B-i	.
4A	.
4F	-bo
=26	=26
8cL	fioc-
8B-y	.
8A	.
8GJ	.
4.F	.
16EL	.
16DJ	.
2E	.
2F	-chi,
=27	=27
2E	un
4F	nem-
2C	-bo
8cL	fioc-
8B-y	.
8A	.
8GJ	.
4A	.
=28	=28
0G	-chi;
=||29	=||29
!!LO:TX:a:t=Seconda parte. A quattro.
2c	Tuo
4c	fia
4c	que-
4c	-sto
4B-y	le-
2A	-ga-
=30	=30
4F	-me on-
2A	-d'ho-
4G	-ra il
2c	brac-
[2c	-cio,
=31	=31
4c]	.
4c	on-
4B-y	-d'ho-
4A	-ra il
2B-y	brac-
4F	-cio
4c	Non
=32	=32
1F	pur,
2r	.
2F	ma
=33	=33
4B-y	via
4G	più
4.d	stret-
16cL	.
16B-yJ	.
4A	.
4B-y	-to il
8cL	co-
8B-y	.
8A	.
8GJ	.
=34	=34
4F	.
4B-y	-re a-
2G	-vol-
1G	-go:
=35	=35
2r	.
2F	Ca-
4G	-ro
2F	fur-
[4F	-to, on-
=36	=36
4F]	.
4D	-de'l
4F	crin
4E	Ma-
4D	-don-
4F	-na
2E	cin-
=37	=37
1F	-se,
2r	.
4r	.
4c	Ma-
=38	=38
4A	-don-
4A	-na
2A	cin-
2.A	-se.
4A	Gra-
=39	=39
2B-y	-di-
4A	-sci il
2c	vo-
8B-yL	.
8AJ	.
4G	.
4A	.
=40	=40
4BnX	.
2c	.
4Bni	.
2c	-to,
4r	.
[4c	ché
=41	=41
4c]	.
4G	più
4A	for-
4A	-te
2B-X	lac-
4B-y	-cio
4B-y	Da
=42	=42
4A	man
4F	più
2E	dot-
4E	-ta or-
2c	-di-
[4c	-to
=43	=43
4c]	.
2B-y	al-
2A	-ma
2G	non
4F	strin-
=44	=44
2G	-se,
2B-y	Né
2.B-y	per-
4A	-ché a
=45	=45
4d	te
4d	lo
2c	do-
1c	-ni in-
=46	=46
2d	-di
4B-y	mi
4.B-y	sciol-
16AL	.
16GJ	.
2A	.
4G	.
=47	=47
4A	-go,
4.F	in-
8F	-di
4G	mi
4.A	sciol-
8B-y	.
4c	.
4G	-go,
=48	=48
2r	.
2G	in-
4E	-di
4F	mi
2G	sciol-
=49	=49
4G	-go,
2c	in-
2c	-di
4B-y	mi
4.c	sciol-
16B-yL	.
16AJ	.
=50	=50
2G	.
4A	-go,
4c	mi
4.F	sciol-
8GL	.
8A	.
8B-yJ	.
[4c	.
=51	=51
4c]	.
2c	-go,
4A	mi
2.F	sciol-
4G	-go,
=52	=52
2r	.
2.G	in-
2E	-di
4F	mi
=53	=53
4.G	sciol-
16FL	.
16EJ	.
2D	.
2E	-go,
2E	mi
=54	=54
2G	sciol-
4F	.
4E	.
2F	.
4D	-go,
4G	in-
=55	=55
2E	-di
2A	mi
1G	sciol-
=56	=56
0Al	-go.
==	==
*-	*-
!!!RDF**kern: i = editorial accidental
!!!RDF**kern: l = terminal long
!!!ENC: Emiliano Ricciardi
!!!END: 2018
!!!EED: Ricciardi, Emiliano
!!!EEV: 2018/09/18
!!!YEC: Copyright 2018 Emiliano Ricciardi, All Rights Reserved
!!!ONB: Translated from MusicXML on 2018/09/18 and edited by Craig Stuart Sapp
!!@@BEGIN:	VERSEDATA
!!@SOLERTI:	46
!!@CATALOGNUM:	Trm0046
!!@LAST_MODIFIED: 2020/07/12
!!@TITLE:		Amor, se fia giamai che dolce i' tócchi
!!@GENRE:		sonetto
!!@MANUSRC:	Brn, C, Ts<sub>1</sub>, V<sub>8</sub>, V<sub>13/TS1</sub>, W
!!@PRINTSRC:	4, 8, 9, 11, 12, 13, 15, 20, 24, 29, 33, 67, 85, 87, 141, 166, 169
!!@@BEGIN:	VERSES
!!@ABOUTIT:	Offerisce ad Amore in voto una bendella di seta la quale egli aveva involata a la sua donna.
!!@ABOUTEN:	He offers to Love as a vow a little band of silk that he had stolen from his lady.
!!@EDITOR:	Solerti, Angelo
!!@EDITION_TITLE: Le Rime di Torquato Tasso
!!@EDITION_LOC:	Bologna
!!@EDITION_PUB:	Romagnoli-Dall’Acqua
!!@EDITION_DATE:  1898-1902
!!@EDITION_VOL:	2
!!@EDITION_PAGE:  69-70
!!@TRANSLATOR:	Emiliano Ricciardi and Amyrose McCue Gill
!!@VERSE:
!!	Amor, se fia giamai che dolce i' tócchi
!!	Il terso avorio de la bianca mano,
!!	E 'l lampeggiar del riso umile e piano
!!	Veggia da presso e 'l folgorar de gli occhi:
!!@VERSE:
!!	E notar possa come quindi scocchi
!!	Lo stral tuo dolce e mai non parta in vano,
!!	E come al cor dal bel sembiante umano
!!	D'amorose dolcezze un nembo fiocchi;
!!@VERSE:
!!	Fia tuo questo lacciuol ch'annodo al braccio
!!	Non pur, ma vie più stretto il cor n'involgo:
!!	Caro furto, ond'il crin madona avvolse.
!!@VERSE:
!!	Gradisci il voto, ché più forte laccio
!!	Da man più dotta ordito alma non tolse;
!!	Né per che a te lo doni indi mi sciolgo.
!!@TVERSE:
!!	Love, if it ever occurs that, gently, I touch
!!	The pure ivory of her white hand,
!!	And the flash of her humble and soft smile
!!	I glimpse from nearby, and the dazzle of her eyes;
!!@TVERSE:
!!	And I am able to notice how, in this way,
!!	Your sweet arrow pesters and never departs in vain,
!!	And how to my heart from the beautiful human appearance,
!!	A storm of loving sweetnesses showers down;
!!@TVERSE:
!!	May it become yours, this little band that I tie not only to my arm,
!!	But which I bind even more tightly to my heart:
!!	Beloved theft, with which my lady used to wrap her hair.
!!@TVERSE:
!!	Appreciate the gift, because a stronger band woven
!!	By a more skilled hand no soul ever took;
!!	Nor because, giving it to you, do I free myself.
!!@@END:		VERSES
!!@OTHER_CRIT_ED:   Torquato Tasso, <i>Rime d’amore (secondo il codice
!!		Chigiano L VIII 302)</i>, eds. Franco Gavazzeni and
!!		Vercingetorige Martignone, vol. 4 of <i>Edizione
!!		Nazionale delle opere di Torquato Tasso</i>
!!		(Alessandria: Edizioni Dell’Orso, 2004), 32.
!!@ATTRIBUTION_ABOUT:	Secure
!!		<br>
!!		Among other authoritative sources (see Literary
!!		Sources), this poem appears in the autograph Chigiano
!!		L.VIII.302 (Biblioteca Vaticana, Rome), compiled
!!		around 1584&ndash;85.
!!@DATING:
!!@DEDICATEE:	Bendidio, Lucrezia
!!@COMMENTARY:
!!@@END:		VERSEDATA
!!@@BEGIN:	SETTING
!!@CATALOGNUM:	Trm0046a
!!@RIMETITLE:	Amor, se fia giamai che dolce i' tócchi
!!@SOLERTI:	46
!!@COMPOSER:	Guami, Francesco
!!@PRINCEPSTITLE:	Il terzo libro de madrigali a quattro, et a cinque voci
!!@PRINCEPSLOC:	Venetia
!!@NORMLOC:	Venice
!!@NORMPUB:	Angelo Gardano
!!@NORMPUBSHORT:	Gardano
!!@PRINCEPSPUB:	Gardano
!!@PRINCEPSYEAR:	1598
!!@PRINCEPSRISM:	G 4800
!!@REPRINTS:	
!!@OVOICES:	4
!!@EXTANTVOICES:	1
!!@PARTBOOKS:	
!!@EXTPARTBOOKS:	
!!@OCLEFS:	C4
!!@OMENSURATION:	Cut-C
!!@OKEYSIG:	b-
!!@FINAL:	(C)F
!!@TIMPEDITOR:	Ricciardi, Emiliano
!!@NOTE:		
!!@@END:		SETTING
